!!!!SEGMENT: pl-wru--50044-muz--001-003_buchner-philipp-friedrich--plectrum-musicum-sonata-iii.krn
!!!cenid: 16xx:1804
!!!COM: Buchner, Philipp Friedrich
!!!COM-rismID: pe30013776
!!!CDT:
!!!CNT:
!!!GTL: Plectrum musicum
!!!OTL: Sonata III
!!!OMV: 003
!!!PDT: 1662
!!!AGN:
!!!SMS-siglum: PL-WRu
!!!SMS-shelfmark: 50044 Muz.
!!!SMS-shelfwork: 001-003 G
!!!SMS-variant:
!!!SMS-altvar:
!!!NIFC-rismSourceID: 990007465
!!!NIFC-rismChildID: 990007465
!!!NIFC-islandoraID: none
!!!URL-pdf-islandora:
!!!URL-scan: https://www.bibliotekacyfrowa.pl/dlibra/doccontent?id=116 @EN{Scan on Digital Library of University of Wroclaw} @PL{Skany w portalu Biblioteka Cyfrowa Uniwersytetu Wrocławskiego}
!!!IIIF:
!!!ONB-nifc: UWAGA: Violino I: s. 5, Violino II: s. 24, Bassus: s. 67, Bassus continuus: s. 82
!!!AIN: 1 cemba 2 violn
!!!key: g
**kern	**fba	**kern	**fba	**kern	**kern
*part4	*part4	*part3	*part3	*part2	*part1
*staff4	*	*staff3	*	*staff2	*staff1
*I"BASSUS CONTINUUS.	*	*I"BASSUS	*	*I"VIOLINO II.	*I"VIOLINO I.
*I'bc	*	*I'b	*	*I'vl 2	*I'vl 1
*Icemba	*	*	*	*Ivioln	*Ivioln
*ICklav	*	*ICstr	*	*ICstr	*ICstr
*IGcont	*	*IGcont	*	*	*
*clefF4	*	*clefF4	*	*clefG2	*clefG2
*k[b-]	*	*k[b-]	*	*k[b-]	*k[b-]
*g:	*	*g:	*	*g:	*g:
*M2/2	*	*M2/2	*	*M2/2	*M2/2
*met(C|)	*	*met(C|)	*	*met(C|)	*met(C|)
=1-	=1-	=1-	=1-	=1-	=1-
!!LO:TX:t=P:problem=kreski pseudotaktowe jako oddechy:global
!LO:TX:b:t=Adagio.	!	!LO:TX:b:t=Adagio.	!	!LO:TX:b:t=Adagio.	!LO:TX:b:t=Adagio.
2.G\	.	2.G\	.	4r	1r
.	.	.	.	4g/	.
.	.	.	.	8.dd\	.
.	.	.	.	32cc\	.
.	.	.	.	32b-/	.
4F#X\	.	4F#X\	.	8.a/	.
.	.	.	.	16a/	.
=2-	=2-	=2-	=2-	=2-	=2-
2G\	.	2G\	.	2b-/	2r
!	!	!	!	!LO:TX:t=P:problem=kreska pseudotaktowa	!
4D/	.	4D/	.	2a/	8r
.	.	.	.	.	8dd\
!LO:TX:t=P:problem=kreska pseudotaktowa	!	!LO:TX:t=P:problem=kreska pseudotaktowa	!	!	!
4Fny\	6	4Fny\	6	.	8dd\
!	!	!	!	!	!LO:TX:t=P:problem=kreska pseudotaktowa
.	.	.	.	.	8dd\
=3-	=3-	=3-	=3-	=3-	=3-
[<2E-X\	5	[<2E-X\	5	2g/	8gg\
.	.	.	.	.	8b-/
.	.	.	.	.	8b-/
.	.	.	.	.	8b-/
4E-\]	6 4	4E-\]	6 4	8r	4cc\
.	.	.	.	8a/	.
!	!	!	!	!	!LO:TX:t=P:problem=kreska pseudotaktowa
4D/	6	4D/	6	4.b-/	4dd\
=4-	=4-	=4-	=4-	=4-	=4-
2C/	- 7	2C/	- 7	.	4.ee-X\
.	.	.	.	16b-/	.
.	.	.	.	16cc\	.
.	x 6	.	x 6	4a/	.
.	.	.	.	.	16ee-\
.	.	.	.	.	16ff\
!	!	!	!	!	!LO:TX:t=P:problem=kreska pseudotaktowa
4.BB-/	.	4.BB-/	.	2b-/	2dd\
8AA/	.	8AA/	.	.	.
=5-	=5-	=5-	=5-	=5-	=5-
!LO:TX:t=P:problem=kreska pseudotaktowa	!	!LO:TX:t=P:problem=kreska pseudotaktowa	!	!	!
1GG	.	1GG	.	1r	4r
.	.	.	.	.	4dd\
.	.	.	.	.	8.gg\
.	.	.	.	.	32ff\
.	.	.	.	.	32eeny\
.	.	.	.	.	8.dd\
.	.	.	.	.	16dd\
=6-	=6-	=6-	=6-	=6-	=6-
2D/	.	2D/	.	2r	2ff\
!	!	!	!	!	!LO:TX:t=P:problem=kreska pseudotaktowa
2C/	.	2C/	.	8r	2ee\
.	.	.	.	8g/	.
.	.	.	.	8g/	.
!	!	!	!	!LO:TX:t=P:problem=kreska pseudotaktowa	!
.	.	.	.	8g/	.
=7-	=7-	=7-	=7-	=7-	=7-
[2BB-/	5	[2BB-/	5	8dd\	2dd\
.	.	.	.	8f/	.
.	.	.	.	8f/	.
.	.	.	.	8f/	.
4BB-]	6 4	4BB-]	6 4	4g/	8r
.	.	.	.	.	8ee\
!	!	!	!	!LO:TX:t=P:problem=kreska pseudotaktowa	!
4AA/	6	4AA/	6	4a/	4.ff\
=8-	=8-	=8-	=8-	=8-	=8-
2GG/	7	2GG/	7	4.b-/	.
.	.	.	.	.	16ff\
.	.	.	.	.	16gg\
.	6	.	6	.	4ee\
.	.	.	.	16b-/	.
.	.	.	.	16cc\	.
!LO:TX:t=P:problem=kreska pseudotaktowa	!	!LO:TX:t=P:problem=kreska pseudotaktowa	!	!	!
2FF/	.	2FF/	.	2a/	2ff\
*	*	*	*	*custos:f	*
!	!	!	!	!LO:LB:g=original	!
=9-	=9-	=9-	=9-	=9-	=9-
2.F\	.	2.F\	.	4r	1r
.	.	.	.	4f/	.
.	.	.	.	8.cc\	.
.	.	.	.	32b-/	.
.	.	.	.	32a/	.
4Eny\	.	4Eny\	.	8.g/	.
.	.	.	.	16g/	.
=10-	=10-	=10-	=10-	=10-	=10-
2F\	.	2F\	.	2a/	2r
!	!	!	!	!LO:TX:t=P:problem=kreska pseudotaktowa	!
4C/	.	4C/	.	2g/	8r
.	.	.	.	.	8cc\
4E-X\	6	4E-X\	6	.	8cc\
.	.	.	.	.	8cc\
*	*	*	*	*	*custos:ff
!	!	!	!	!	!LO:LB:g=original
=11-	=11-	=11-	=11-	=11-	=11-
[2D/	5	[2D/	5	2f/	8ff\
.	.	.	.	.	8a/
.	.	.	.	.	8a/
.	.	.	.	.	8a/
4D/]	6 4	4D/]	6 4	8r	4b-/
.	.	.	.	8g/	.
4C/	6	4C/	6	4.a/	4cc\
=12-	=12-	=12-	=12-	=12-	=12-
2BB-/	7	2BB-/	7	.	4.dd\
.	.	.	.	16a/	.
.	.	.	.	16b-/	.
.	6	.	6	4g/	.
.	.	.	.	.	16dd\
.	.	.	.	.	16ee\
!LO:TX:t=P:problem=kreska pseudotaktowa	!	!LO:TX:t=P:problem=kreska pseudotaktowa	!	!LO:TX:t=P:problem=kreska pseudotaktowa	!LO:TX:t=P:problem=kreska pseudotaktowa
2AA/	#	2AA/	#	2a/	2cc#X\
=13-	=13-	=13-	=13-	=13-	=13-
1AA	5 #	1AA	5 #	4r	8r
.	.	.	.	.	(16a/
.	.	.	.	.	16g/)
!	!	!	!	!	!LO:N:acc=#
.	.	.	.	8r	(16bn/
.	.	.	.	.	16a/)
.	.	.	.	(16a/	(<16cc#X\
!	!	!	!	!	!LO:N:acc=#
.	.	.	.	16g/)	16bn/)
!	!	!	!	!LO:N:acc=#	!
.	.	.	.	(16bn/	(16dd\
.	.	.	.	16a/)	16cc#\)
.	.	.	.	(16cc#X\	(16ee\
.	.	.	.	16b/)	16dd\)
.	6 4	.	6 4	8dd\	8ff\
.	.	.	.	16ee\	16gg\
!	!	!	!	!LO:TX:t=P:problem=kreska pseudotaktowa	!
.	.	.	.	16ff\	16aa\
=14-	=14-	=14-	=14-	=14-	=14-
1GG	5	1GG	5	8.gg\	8.bb-\
.	.	.	.	16ff\	16aa\
.	.	.	.	8.ff\	8.aa\
.	.	.	.	16ee\	16gg\
*	*	*	*	*custos:ee	*
!	!	!	!	!LO:LB:g=original	!
.	6	.	6	8.ee\	8.gg\
.	.	.	.	16dd\	16ff\
.	.	.	.	8.dd\	8.ff\
!	!	!	!	!LO:TX:t=P:problem=kreska pseudotaktowa	!
.	.	.	.	16cc#X\	16ee\
*	*	*	*	*	*custos:ee
!	!	!	!	!	!LO:LB:g=original
=15-	=15-	=15-	=15-	=15-	=15-
1AA	5 #	1AA	5 #	8.cc#X\	4ee\
!	!	!	!	!LO:SIC:v:s=32b/	!
.	.	.	.	32b-y/	.
.	.	.	.	32a/	.
.	6 4	.	6 4	2dd\	8.ff\
.	.	.	.	.	32ee\
.	.	.	.	.	32dd\
.	.	.	.	.	4.gg\
!	!	!	!	!LO:TX:t=P:problem=kreska pseudotaktowa	!
.	5 #	.	5 #	4cc#X\	.
.	.	.	.	.	8ee\
*custos:D	*	*custos:D	*	*	*
!LO:LB:g=original	!	!LO:LB:g=original	!	!	!
=16-	=16-	=16-	=16-	=16-	=16-
2.D/	.	2.D/	.	4dd\	2dd\
.	.	.	.	4dd\	.
!	!	!	!	!	!LO:TX:t=P:problem=kreska pseudotaktowa
.	.	.	.	8.gg\	2r
.	.	.	.	32ff\	.
.	.	.	.	32ee\	.
4C#X/	.	4C#X/	.	8.ee\	.
.	.	.	.	16ee\	.
=17-	=17-	=17-	=17-	=17-	=17-
2D/	.	2D/	.	2ff\	2r
!	!	!	!	!LO:TX:t=P:problem=kreska pseudotaktowa	!LO:N:vis=4
2Cny/	5	2Cny/	5	2ee\	8r
.	.	.	.	.	8g/
.	.	.	.	.	8g/
.	.	.	.	.	8g/
=18-	=18-	=18-	=18-	=18-	=18-
[2BB-/	5	[2BB-/	5	2dd\	8dd\
.	.	.	.	.	8f/
.	.	.	.	.	8f/
.	.	.	.	.	8f/
4BB-/]	6 4	4BB-/]	6 4	8r	4g/
.	.	.	.	8ee\	.
!	!	!	!	!	!LO:TX:t=P:problem=kreska pseudotaktowa
4AA/	6	4AA/	6	4.ff\	4a/
=19-	=19-	=19-	=19-	=19-	=19-
2GG/	7	2GG/	7	.	4.b-y/
.	.	.	.	16ff\	.
.	.	.	.	16gg\	.
.	6	.	6	4ee\	.
.	.	.	.	.	16b-/
.	.	.	.	.	16ccny\
2FF/	.	2FF/	.	2ff\	4a/
.	.	.	.	.	4cc\
=20-	=20-	=20-	=20-	=20-	=20-
4FF/	.	4FF/	.	1r	8.ff\
.	.	.	.	.	32ee\
.	.	.	.	.	32dd\
4AA/	.	4AA/	.	.	8.cc\
.	.	.	.	.	16cc\
!	!	!	!	!	!LO:TX:t=P:problem=kreska pseudotaktowa
4BB-/	.	4BB-/	.	.	2dd\
4D/	.	4D/	.	.	.
=21-	=21-	=21-	=21-	=21-	=21-
2F\	.	2F\	.	8r	2cc\
.	.	.	.	8ff\	.
.	.	.	.	8ff\	.
.	.	.	.	8ff\	.
!LO:TX:t=P:problem=kreska pseudotaktowa	!	!LO:TX:t=P:problem=kreska pseudotaktowa	!	!	!
[<2G\	5	[<2G\	5	8bb-\	2b-/
.	.	.	.	8dd\	.
.	.	.	.	8dd\	.
.	.	.	.	8dd\	.
*	*	*	*	*custos:ee	*
!	!	!	!	!LO:LB:g=original	!
=22-	=22-	=22-	=22-	=22-	=22-
4G\]	6 4	4G\]	6 4	4ee-X\	8r
.	.	.	.	.	8cc\
4F\	6	4F\	6	4ff\	4.dd\
2E-X\	7	2E-X\	7	4.gg\	.
.	.	.	.	.	16dd\
.	.	.	.	.	16ee-X\
.	6	.	6	.	4cc\
.	.	.	.	16gg\	.
!	!	!	!	!LO:TX:t=P:problem=kreska pseudotaktowa	!
.	.	.	.	16aa\	.
*	*	*	*	*	*custos:dd
!	!	!	!	!	!LO:LB:g=original
=23-	=23-	=23-	=23-	=23-	=23-
2.D/	.	2.D/	.	4ff#X\	2dd\
.	.	.	.	4a/	.
!	!	!	!	!	!LO:TX:t=P:problem=kreska pseudotaktowa
.	.	.	.	8.dd\	2r
.	.	.	.	32ccny\	.
.	.	.	.	32b-/	.
4F#X\	.	4F#X\	.	8.a/	.
.	.	.	.	16a/	.
=24-	=24-	=24-	=24-	=24-	=24-
[<2G\	.	[<2G\	.	2b-/	2r
!	!	!	!	!LO:TX:t=P:problem=kreska pseudotaktowa	!
4G\]	2	4G\]	2	2a/	8r
.	.	.	.	.	8dd\
4Fny\	.	4Fny\	.	.	8dd\
.	.	.	.	.	8dd\
=25-	=25-	=25-	=25-	=25-	=25-
[<2E-X\	5	[<2E-X\	5	2g/	8gg\
.	.	.	.	.	8b-/
.	.	.	.	.	8b-/
.	.	.	.	.	8b-/
4E-\]	6 4	4E-\]	6 4	8r	4cc\
.	.	.	.	8a/	.
!	!	!	!	!	!LO:TX:t=P:problem=kreska pseudotaktowa
4D/	6	4D/	6	4.b-/	4dd\
=26-	=26-	=26-	=26-	=26-	=26-
2C/	- 7	2C/	- 7	.	4.ee-X\
.	.	.	.	16b-/	.
.	.	.	.	16cc\	.
.	x 6	.	x 6	4a/	.
.	.	.	.	.	16ee-\
.	.	.	.	.	16ff\
!	!	!	!	!LO:TX:t=P:problem=kreska pseudotaktowa	!LO:TX:t=P:problem=kreska pseudotaktowa
4.BB-/	.	4.BB-/	.	2b-/	2dd\
!LO:TX:t=P:problem=kreska pseudotaktowa	!	!LO:TX:t=P:problem=kreska pseudotaktowa	!	!	!
8C/	.	8C/	.	.	.
=27-	=27-	=27-	=27-	=27-	=27-
1D	5 #	1D	5 #	4r	8r
.	.	.	.	.	(16d/
.	.	.	.	.	16c#X/)
.	.	.	.	8r	(16e/
.	.	.	.	.	16d/)
.	.	.	.	(>16d/	(16f#X/
!	!	!	!	!LO:SIC:v:s=16c#/)	!
.	.	.	.	16c/)	16e/)
.	.	.	.	(>16e/	(16g/
.	.	.	.	16d/)	16f#X/)
.	.	.	.	(>16f#X/	(16a/
.	.	.	.	16e/)	16g/)
.	6 4	.	6 4	8g/	8b-/
.	.	.	.	16a/	16cc\
!	!	!	!	!	!LO:TX:t=P:problem=kreska pseudotaktowa
.	.	.	.	16b-/	16dd\
*	*	*	*	*custos:cc	*
!	!	!	!	!LO:LB:g=original	!
=28-	=28-	=28-	=28-	=28-	=28-
1C	- 5	1C	- 5	8.cc\	8.ee-X\
.	.	.	.	16b-/	16dd\
.	.	.	.	8.b-/	8.dd\
.	.	.	.	16a/	16cc\
*	*	*	*	*	*custos:cc
!	!	!	!	!	!LO:PB:g=original
.	x 6	.	x 6	8.a/	8.cc\
.	.	.	.	16g/	16b-/
.	.	.	.	8.g/	8.b-/
!	!	!	!	!	!LO:TX:t=P:problem=kreska pseudotaktowa
.	.	.	.	16f#X/	16a/
=29-	=29-	=29-	=29-	=29-	=29-
1D	#	1D	#	8.f#X/	4a/
.	.	.	.	32e/	.
.	.	.	.	32d/	.
.	4	.	4	2g/	8.b-/
.	.	.	.	.	32a/
.	.	.	.	.	32g/
.	.	.	.	.	4.dd\
.	#	.	#	4f#X/	.
.	.	.	.	.	8a/
=30-	=30-	=30-	=30-	=30-	=30-
1GG	.	1GG	.	1g	1g
*custos:GG	*	*custos:GG	*	*	*
!LO:LB:g=original	!	!LO:LB:g=original	!	!	!
=31-	=31-	=31-	=31-	=31-	=31-
*M3/2	*	*M3/2	*	*M3/2	*M3/2
!LO:TX:b:t=adagio.	!	!LO:TX:b:t=adagio.	!	!LO:TX:b:t=allegro.	!
1GG	.	1GG	.	4r	0.r
.	.	.	.	8g/	.
.	.	.	.	8a/	.
.	.	.	.	8b-/	.
.	.	.	.	8a/	.
.	.	.	.	8b-/	.
.	.	.	.	8g/	.
2FF#X/	.	2FF#X/	.	4dd\	.
!	!	!	!	!LO:TX:t=P:problem=kreska pseudotaktowa	!
.	.	.	.	4a/	.
=32-	=32-	=32-	=32-	=32-	=32-
1GG	.	1GG	.	4b-/	.
.	.	.	.	8b-/	.
.	.	.	.	8cc\	.
.	.	.	.	8dd\	.
.	.	.	.	8cc\	.
.	.	.	.	8dd\	.
.	.	.	.	8b-/	.
*	*	*	*	*custos:ff	*
!	!	!	!	!LO:LB:g=original	!
!LO:TX:t=P:problem=kreska pseudotaktowa	!	!LO:TX:t=P:problem=kreska pseudotaktowa	!	!	!
2AA/	6	2AA/	6	4ffny\	.
!	!	!	!	!LO:TX:t=P:problem=kreska pseudotaktowa	!
.	.	.	.	4cc\	.
=33-	=33-	=33-	=33-	=33-	=33-
1BB-	.	1BB-	.	2dd\	4r
!	!	!	!	!	!LO:TX:b:t=Allegro.
.	.	.	.	.	8dd\
.	.	.	.	.	8eeny\
.	.	.	.	2r	8ff\
.	.	.	.	.	8ee\
.	.	.	.	.	8ff\
.	.	.	.	.	8dd\
!LO:N:acc=#	!	!LO:N:acc=#	!	!	!
2BBn/	6	2BBn/	6	2r	4gg\
.	.	.	.	.	4dd\
=34-	=34-	=34-	=34-	=34-	=34-
1C	.	1C	.	1.r	4ee\
.	.	.	.	.	8ee\
.	.	.	.	.	8ff\
.	.	.	.	.	8gg\
.	.	.	.	.	8ff\
.	.	.	.	.	8gg\
.	.	.	.	.	8ee\
!LO:TX:t=P:problem=kreska pseudotaktowa	!	!LO:TX:t=P:problem=kreska pseudotaktowa	!	!	!
2C#X/	6	2C#X/	6	.	4aa\
.	.	.	.	.	4ee\
*	*	*	*	*	*custos:ff
!	!	!	!	!	!LO:LB:g=original
=35-	=35-	=35-	=35-	=35-	=35-
1D	.	1D	.	4ff\	2ff\
.	.	.	.	4aa\	.
.	.	.	.	4dd\	2r
.	.	.	.	4ff\	.
2Eny\	6	2Eny\	6	4.cc\	2r
!	!	!	!	!LO:TX:t=P:problem=kreska pseudotaktowa	!
.	.	.	.	8b-/	.
=36-	=36-	=36-	=36-	=36-	=36-
1F	.	1F	.	4a/	4aa\
.	.	.	.	4aa\	4ccc\
.	.	.	.	4dd\	4ff\
.	.	.	.	4ff\	4aa\
2G\	6	2G\	6	4.eeny\	4.gg\
.	.	.	.	8dd\	8ff\
=37-	=37-	=37-	=37-	=37-	=37-
2A\	#	2A\	#	4cc#X\	4ee\
.	.	.	.	4ee\	4cc#X\
2F\	6	2F\	6	4ff\	4dd\
.	.	.	.	4dd\	4ff\
!LO:TX:t=P:problem=kreska pseudotaktowa	!	!LO:TX:t=P:problem=kreska pseudotaktowa	!	!	!
2A\	#	2A\	#	4.dd\	4.ee\
!	!	!	!	!LO:TX:t=P:problem=kreska pseudotaktowa	!LO:TX:t=P:problem=kreska pseudotaktowa
.	.	.	.	8cc#X\	8ee\
=38-	=38-	=38-	=38-	=38-	=38-
1D	.	1D	.	4dd\	2dd\
.	.	.	.	8dd\	.
.	.	.	.	8ee\	.
.	.	.	.	8ff\	2r
.	.	.	.	8ee\	.
.	.	.	.	8ff\	.
.	.	.	.	8dd\	.
!LO:N:acc=#	!	!LO:N:acc=#	!	!	!
2BBn/	.	2BBn/	.	4gg\	2r
.	.	.	.	4dd\	.
*	*	*	*	*custos:ee	*
!	!	!	!	!LO:LB:g=original	!
=39-	=39-	=39-	=39-	=39-	=39-
1Cny	.	1Cny	.	4ee\	4r
.	.	.	.	4gg\	8ee\
.	.	.	.	.	8ff\
.	.	.	.	4ccny\	8gg\
.	.	.	.	.	8ff\
.	.	.	.	4ee\	8gg\
.	.	.	.	.	8ee\
!LO:TX:t=P:problem=kreska pseudotaktowa	!	!LO:TX:t=P:problem=kreska pseudotaktowa	!	!	!
2AA/	.	2AA/	.	4.cc\	4aa\
.	.	.	.	.	4ee\
.	.	.	.	8b-/	.
=40-	=40-	=40-	=40-	=40-	=40-
2FFny/	.	2FFny/	.	4a/	2ff\
.	.	.	.	8a/	.
.	.	.	.	8b-/	.
2F\	.	2F\	.	8cc\	2r
.	.	.	.	8b-/	.
.	.	.	.	8cc\	.
.	.	.	.	8a/	.
!	!	!	!	!	!LO:TX:t=P:problem=kreska pseudotaktowa
2D/	.	2D/	.	4dd\	2r
!	!	!	!	!LO:TX:t=P:problem=kreska pseudotaktowa	!
.	.	.	.	4a/	.
=41-	=41-	=41-	=41-	=41-	=41-
2BB-y/	.	2BB-y/	.	4b-/	4dd\
.	.	.	.	8b-/	4ff\
.	.	.	.	8cc\	.
2GG/	.	2GG/	.	8dd\	4b-/
.	.	.	.	8cc\	.
.	.	.	.	8dd\	4dd\
.	.	.	.	8b-/	.
2EE-X/	6	2EE-X/	6	4g/	4.ccny\
.	.	.	.	4gg\	.
!	!	!	!	!	!LO:TX:t=P:problem=kreska pseudotaktowa
.	.	.	.	.	8b-/
=42-	=42-	=42-	=42-	=42-	=42-
!LO:TX:t=P:problem=kreska pseudotaktowa	!	!LO:TX:t=P:problem=kreska pseudotaktowa	!	!	!
1.FF	3	1.FF	3	4ff\	4a/
.	.	.	.	4aa\	4ff\
*	*	*	*	*	*custos:b
!	!	!	!	!	!LO:LB:g=original
.	4	.	4	4dd\	4b-/
.	.	.	.	4ff\	4dd\
.	3	.	3	4.cc\	4.a/
.	.	.	.	8cc\	8a/
*	*	*	*	*custos:b	*
!	!	!	!	!LO:PB:g=original	!
=43-	=43-	=43-	=43-	=43-	=43-
1BB-	5	1BB-	5	4b-/	2b-/
.	.	.	.	4dd\	.
.	6	.	6	4g/	2r
.	.	.	.	4b-/	.
!	!	!	!	!	!LO:TX:t=P:problem=kreska pseudotaktowa
2C/	6	2C/	6	4.a/	2r
.	.	.	.	8g/	.
=44-	=44-	=44-	=44-	=44-	=44-
1D	5	1D	5	2fny/	4dd\
.	.	.	.	.	4ff\
.	6	.	6	2r	4b-/
.	.	.	.	.	4dd\
!	!	!	!	!LO:TX:t=P:problem=kreska pseudotaktowa	!
2E-X\	6	2E-X\	6	2r	4.cc\
.	.	.	.	.	8b-/
*custos:F	*	*custos:F	*	*	*
!LO:LB:g=original	!	!LO:LB:g=original	!	!	!
=45-	=45-	=45-	=45-	=45-	=45-
1F	.	1F	.	4r	2a/
.	.	.	.	8a/	.
.	.	.	.	8b-/	.
.	.	.	.	8cc\	2r
.	.	.	.	8b-/	.
.	.	.	.	8cc\	.
.	.	.	.	8a/	.
!	!	!	!	!	!LO:TX:t=P:problem=kreska pseudotaktowa
2F#X\	.	2F#X\	.	4dd\	2r
.	.	.	.	4a/	.
=46-	=46-	=46-	=46-	=46-	=46-
2G\	.	2G\	.	2b-/	4r
.	.	.	.	.	8dd\
.	.	.	.	.	8ee\
2D/	.	2D/	.	2r	8ff\
.	.	.	.	.	8ee\
.	.	.	.	.	8ff\
.	.	.	.	.	8dd\
2C#X/	.	2C#X/	.	2r	4aa\
.	.	.	.	.	4ee\
=47-	=47-	=47-	=47-	=47-	=47-
1D	.	1D	.	1.r	4ff\
.	.	.	.	.	8ff\
.	.	.	.	.	8gg\
.	.	.	.	.	8aa\
.	.	.	.	.	8gg\
.	.	.	.	.	8aa\
.	.	.	.	.	8ff\
!LO:TX:t=P:problem=kreska pseudotaktowa	!	!LO:TX:t=P:problem=kreska pseudotaktowa	!	!	!
2BB-/	.	2BB-/	.	.	4bb-\
!	!	!	!	!	!LO:TX:t=P:problem=kreska pseudotaktowa
.	.	.	.	.	4ff\
=48-	=48-	=48-	=48-	=48-	=48-
1GG	.	1GG	.	4r	2gg\
.	.	.	.	8b-/	.
.	.	.	.	8cc\	.
.	.	.	.	8dd\	2r
.	.	.	.	8cc\	.
.	.	.	.	8dd\	.
.	.	.	.	8b-/	.
2AA/	6	2AA/	6	4ff\	2r
!	!	!	!	!LO:TX:t=P:problem=kreska pseudotaktowa	!
.	.	.	.	4cc\	.
=49-	=49-	=49-	=49-	=49-	=49-
1BB-	5	1BB-	5	4dd\	4b-/
.	.	.	.	4ff\	4dd\
.	6	.	6	4b-/	4g/
.	.	.	.	4dd\	4b-/
2Cny/	6	2Cny/	6	4.cc\	4.a/
.	.	.	.	8b-/	8g/
*	*	*	*	*custos:a	*custos:f
!	!	!	!	!LO:LB:g=original	!LO:LB:g=original
=50-	=50-	=50-	=50-	=50-	=50-
1D	.	1D	.	4a/	4fny/
!	!	!	!	!LO:SIC:v:s=4ff\	!
.	.	.	.	4gg\	8ff\
.	.	.	.	.	8gg\
.	.	.	.	4dd\	8aa\
.	.	.	.	.	8gg\
.	.	.	.	4ff\	8aa\
.	.	.	.	.	8ff\
!LO:TX:t=P:problem=kreska pseudotaktowa	!	!LO:TX:t=P:problem=kreska pseudotaktowa	!	!	!
2BB-/	.	2BB-/	.	4.dd\	4bb-\
!	!	!	!	!	!LO:TX:t=P:problem=kreska pseudotaktowa
.	.	.	.	.	4ff\
.	.	.	.	8cc\	.
=51-	=51-	=51-	=51-	=51-	=51-
2GG/	.	2GG/	.	4b-/	4gg\
.	.	.	.	8b-/	4bb-\
.	.	.	.	8cc\	.
2G\	.	2G\	.	8dd\	4gg\
.	.	.	.	8cc\	.
.	.	.	.	8dd\	4bb-\
.	.	.	.	8b-/	.
2E-X\	.	2E-X\	.	4ee-X\	4.gg\
.	.	.	.	4b-/	.
.	.	.	.	.	8ff\
=52-	=52-	=52-	=52-	=52-	=52-
1C	-	1C	-	4cc\	4ee-X\
.	.	.	.	4ee-X\	4gg\
.	.	.	.	4a/	4cc\
.	.	.	.	4cc\	4ee-X\
2D/	6	2D/	6	4.b-/	4.dd\
!	!	!	!	!LO:TX:t=P:problem=kreska pseudotaktowa	!LO:TX:t=P:problem=kreska pseudotaktowa
.	.	.	.	8a/	8cc\
=53-	=53-	=53-	=53-	=53-	=53-
2E-X\	.	2E-X\	.	4g/	4b-/
.	.	.	.	8g/	8b-/
.	.	.	.	8a/	8cc\
2D/	6	2D/	6	8b-/	8dd\
.	.	.	.	8a/	8cc\
.	.	.	.	8b-/	8dd\
.	.	.	.	8g/	8b-/
2C/	6	2C/	6	4cc\	4ee-X\
.	.	.	.	4a/	4cc\
=54-	=54-	=54-	=54-	=54-	=54-
*col	*	*col	*	*	*
1BB-	5	1BB-	5	4b-/	4dd\
.	.	.	.	4dd\	4ff\
.	6	.	6	4g/	4b-/
.	.	.	.	4b-/	4dd\
*	*	*	*	*custos:a	*
!	!	!	!	!LO:LB:g=original	!
1C/	6	1C/	6	4.a/	4.cc\
.	.	.	.	8g/	8b-/
*	*	*	*	*	*custos:a
!	!	!	!	!	!LO:LB:g=original
=55-	=55-	=55-	=55-	=55-	=55-
.	.	.	.	1g	1.a
1D	4	1D	4	.	.
.	#	.	#	2f#X/	.
*Xcol	*	*Xcol	*	*	*
=56-	=56-	=56-	=56-	=56-	=56-
1.GG	.	1.GG	.	1.g	1.g
=57-	=57-	=57-	=57-	=57-	=57-
*M2/2	*	*M2/2	*	*M2/2	*M2/2
*met(C|)	*	*met(C|)	*	*met(C|)	*met(C|)
!LO:TX:b:t=preſto.	!	!LO:TX:b:t=preſto.	!	!LO:TX:b:t=preſto.	!
4G\	.	4G\	.	4dd\	0r
4F#X\	.	4F#X\	.	8.a/	.
.	.	.	.	16cc\	.
4.G\	.	4.G\	.	8b-/	.
.	.	.	.	16a/	.
.	.	.	.	16g/	.
.	.	.	.	8.dd\	.
8Fny\	.	8Fny\	.	.	.
.	.	.	.	32eeny\	.
!	!	!	!	!LO:TX:t=P:problem=kreska pseudotaktowa	!
.	.	.	.	32ff\	.
=58-	=58-	=58-	=58-	=58-	=58-
4.E-X\	.	4.E-X\	.	8gg\	.
.	.	.	.	16g/	.
.	.	.	.	16a/	.
.	.	.	.	8b-/	.
8D/	.	8D/	.	16cc\	.
.	.	.	.	16dd\	.
2C/	- 5	2C/	- 5	8ee-X\	.
.	.	.	.	16ee-\	.
.	.	.	.	16dd\	.
.	.	.	.	16cc\	.
.	.	.	.	16b-\	.
.	x 6	.	x 6	16a/	.
!	!	!	!	!LO:TX:t=P:problem=kreska pseudotaktowa	!
.	.	.	.	16g/	.
*custos:D	*	*custos:D	*	*	*
!LO:LB:g=original	!	!LO:LB:g=original	!	!	!
=59-	=59-	=59-	=59-	=59-	=59-
!	!	!	!	!	!LO:TX:b:t=preſto.
2D/	#	2D/	#	8f#X/	4dd\
.	4	.	4	4g/	.
.	.	.	.	.	8.a/
.	#	.	#	8f#X/	.
.	.	.	.	.	16cc\
*	*	*	*	*custos:g	*
!	!	!	!	!LO:LB:g=original	!
4.G\	.	4.G\	.	2g/	8b-/
.	.	.	.	.	16a/
.	.	.	.	.	16g/
.	.	.	.	.	8.dd\
8F\	.	8F\	.	.	.
.	.	.	.	.	32eeny\
!	!	!	!	!	!LO:TX:t=P:problem=kreska pseudotaktowa
.	.	.	.	.	32ff\
=60-	=60-	=60-	=60-	=60-	=60-
4.E-X\	.	4.E-X\	.	1r	8gg\
.	.	.	.	.	16g/
.	.	.	.	.	16a/
.	.	.	.	.	8b-/
8D/	.	8D/	.	.	16cc\
.	.	.	.	.	16dd\
4C/	-	4C/	-	.	8ee-X\
.	.	.	.	.	16gg\
.	.	.	.	.	16ff\
4E-X\	.	4E-X\	.	.	16ee-X\
.	.	.	.	.	16dd\
.	.	.	.	.	16cc\
.	.	.	.	.	16b-/
=61-	=61-	=61-	=61-	=61-	=61-
2F\	3	2F\	3	4ff\	8a/
.	4	.	4	.	4b-/
.	.	.	.	8.cc\	.
.	3	.	3	.	8a/
.	.	.	.	16ee-X\	.
*	*	*	*	*	*custos:b
!	!	!	!	!	!LO:LB:g=original
!	!	!	!	!	!LO:TX:t=P:problem=kreska pseudotaktowa
4.BB-/	.	4.BB-/	.	8dd\	2b-/
.	.	.	.	16cc\	.
.	.	.	.	16b-/	.
.	.	.	.	8.ff\	.
8AA/	.	8AA/	.	.	.
.	.	.	.	32gg\	.
!	!	!	!	!LO:TX:t=P:problem=kreska pseudotaktowa	!
.	.	.	.	32aa\	.
=62-	=62-	=62-	=62-	=62-	=62-
2GG/	.	2GG/	.	8bb-\	2r
.	.	.	.	16bb-\	.
.	.	.	.	16aa\	.
.	.	.	.	16gg\	.
.	.	.	.	16ff\	.
.	.	.	.	16eeny\	.
.	.	.	.	16dd\	.
2AA/	#	2AA/	#	8cc#X\	4gg\
.	4	.	4	4dd\	.
.	.	.	.	.	8.eeny\
.	#	.	#	8cc#X\	.
.	.	.	.	.	16gg\
=63-	=63-	=63-	=63-	=63-	=63-
4.D/	.	4.D/	.	2dd\	8ff\
.	.	.	.	.	16ee\
.	.	.	.	.	16dd\
.	.	.	.	.	8.aa\
8C/	.	8C/	.	.	.
.	.	.	.	.	32bb-\
.	.	.	.	.	32ccc\
!LO:TX:t=P:problem=kreska pseudotaktowa	!	!LO:TX:t=P:problem=kreska pseudotaktowa	!	!LO:TX:t=P:problem=kreska pseudotaktowa	!
2BB-/	.	2BB-/	.	2r	8ddd\
.	.	.	.	.	16dd\
.	.	.	.	.	16cc\
.	.	.	.	.	16b-/
.	.	.	.	.	16a/
.	.	.	.	.	16g/
!	!	!	!	!	!LO:TX:t=P:problem=kreska pseudotaktowa
.	.	.	.	.	16f/
=64-	=64-	=64-	=64-	=64-	=64-
2C/	3	2C/	3	4ccny\	8e/
.	4	.	4	.	4f/
.	.	.	.	8.g/	.
.	3	.	3	.	8e/
.	.	.	.	16b-/	.
4.F\	.	4.F\	.	8a/	4f/
.	.	.	.	16g/	.
.	.	.	.	16fny/	.
.	.	.	.	8.cc\	4r
8Eny\	.	8Eny\	.	.	.
.	.	.	.	32dd\	.
.	.	.	.	32ee\	.
*	*	*	*	*custos:ff	*
!	!	!	!	!LO:LB:g=original	!
=65-	=65-	=65-	=65-	=65-	=65-
2D/	.	2D/	.	4ff\	4dd\
.	.	.	.	4r	8.a/
.	.	.	.	.	16cc\
!	!	!	!	!LO:TX:t=P:problem=kreska pseudotaktowa	!
4.G\	.	4.G\	.	2r	8b-/
.	.	.	.	.	16a/
.	.	.	.	.	16g/
.	.	.	.	.	8.dd\
!LO:TX:t=P:problem=kreska pseudotaktowa	!	!LO:TX:t=P:problem=kreska pseudotaktowa	!	!	!
8F\	.	8F\	.	.	.
.	.	.	.	.	32ee\
!	!	!	!	!	!LO:TX:t=P:problem=kreska pseudotaktowa
.	.	.	.	.	32ff\
=66-	=66-	=66-	=66-	=66-	=66-
4E-X\	6 5	4E-X\	6 5	4ee-X\	4gg\
4F\	.	4F\	.	8.cc\	4r
.	.	.	.	16ff\	.
4.BB-/	.	4.BB-/	.	8dd\	2r
.	.	.	.	16cc\	.
.	.	.	.	16b-/	.
.	.	.	.	8.ff\	.
8AA/	.	8AA/	.	.	.
.	.	.	.	32gg\	.
!	!	!	!	!LO:TX:t=P:problem=kreska pseudotaktowa	!
.	.	.	.	32aa\	.
=67-	=67-	=67-	=67-	=67-	=67-
2GG/	.	2GG/	.	4bb-\	4gg\
.	.	.	.	4r	8.dd\
.	.	.	.	.	16ff\
*	*	*	*	*	*custos:ee-
!	!	!	!	!	!LO:LB:g=original
!	!	!	!	!LO:TX:t=P:problem=kreska pseudotaktowa	!
4.C/	-	4.C/	-	2r	8ee-X\
.	.	.	.	.	16dd\
.	.	.	.	.	16cc\
.	.	.	.	.	8.gg\
8BB-/	.	8BB-/	.	.	.
.	.	.	.	.	32gg\
!	!	!	!	!	!LO:TX:t=P:problem=kreska pseudotaktowa
.	.	.	.	.	32aa\
=68-	=68-	=68-	=68-	=68-	=68-
4.AA/	.	4.AA/	.	8ryy	4bb-\
.	.	.	.	16cc\	.
.	.	.	.	16a/	.
.	.	.	.	8.eeny\	4r
8GG/	.	8GG/	.	.	.
.	.	.	.	32ff\	.
.	.	.	.	32gg\	.
8FF/	.	8FF/	.	4aa\	8r
4F\	.	4F\	.	.	16a/
.	.	.	.	.	16f/
!	!	!	!	!LO:TX:t=P:problem=kreska pseudotaktowa	!
.	.	.	.	4r	8.cc\
8Eny\	.	8Eny\	.	.	.
.	.	.	.	.	32dd\
!	!	!	!	!	!LO:TX:t=P:problem=kreska pseudotaktowa
.	.	.	.	.	32eeny\
*custos:D	*	*custos:D	*	*	*
!LO:LB:g=original	!	!LO:LB:g=original	!	!	!
=69-	=69-	=69-	=69-	=69-	=69-
4.D/	.	4.D/	.	8r	4ff\
.	.	.	.	16f/	.
.	.	.	.	16d/	.
.	.	.	.	8.a/	4r
8C/	.	8C/	.	.	.
.	.	.	.	32b-/	.
.	.	.	.	32cc\	.
4.BB-/	.	4.BB-/	.	4dd\	8r
.	.	.	.	.	16d/
.	.	.	.	.	16B-/
!	!	!	!	!LO:TX:t=P:problem=kreska pseudotaktowa	!
.	.	.	.	4r	8.f/
8AA/	.	8AA/	.	.	.
.	.	.	.	.	32g/
!	!	!	!	!	!LO:TX:t=P:problem=kreska pseudotaktowa
.	.	.	.	.	32a/
=70-	=70-	=70-	=70-	=70-	=70-
4.GG/	.	4.GG/	.	8r	8b-/
.	.	.	.	16b-/	16dd\
.	.	.	.	16g/	16b-/
.	.	.	.	8.b-/	8.dd\
8FF/	.	8FF/	.	.	.
.	.	.	.	32cc\	32ee\
.	.	.	.	32dd\	32ff\
*	*	*	*	*custos:ee	*
!	!	!	!	!LO:LB:g=original	!
8EE-X/	.	8EE-X/	.	8ee-X\	8gg\
4E-X\	.	4E-X\	.	16g/	16b-/
.	.	.	.	16e-X/	16g/
.	.	.	.	8.g/	8.b-/
8D/	.	8D/	.	.	.
.	.	.	.	32a/	32cc\
!	!	!	!	!LO:TX:t=P:problem=kreska pseudotaktowa	!LO:TX:t=P:problem=kreska pseudotaktowa
.	.	.	.	32b-/	32dd\
=71-	=71-	=71-	=71-	=71-	=71-
2C/	-	2C/	-	4cc\	4ee-X\
.	.	.	.	8.g/	4r
.	.	.	.	16b-/	.
!LO:TX:t=P:problem=kreska pseudotaktowa	!	!LO:TX:t=P:problem=kreska pseudotaktowa	!	!	!
2F\	.	2F\	.	8a/	2r
.	.	.	.	16g/	.
.	.	.	.	16f/	.
.	.	.	.	8.cc\	.
.	.	.	.	32dd\	.
!	!	!	!	!LO:TX:t=P:problem=kreska pseudotaktowa	!
.	.	.	.	32eeny\	.
*	*	*	*	*	*custos:ff
!	!	!	!	!	!LO:LB:g=original
=72-	=72-	=72-	=72-	=72-	=72-
4D/	.	4D/	.	8ff\	2r
.	.	.	.	16gg\	.
.	.	.	.	16ff\	.
4E-X\	.	4E-X\	.	16ee-X\	.
.	.	.	.	16dd\	.
.	.	.	.	16cc\	.
.	.	.	.	16b-/	.
!LO:TX:t=P:problem=kreska pseudotaktowa	!	!LO:TX:t=P:problem=kreska pseudotaktowa	!	!	!
2F\	3	2F\	3	8a/	4ff\
.	4	.	4	4b-/	.
.	.	.	.	.	8.cc\
!	!	!	!	!LO:TX:t=P:problem=kreska pseudotaktowa	!
.	3	.	3	8a/	.
!	!	!	!	!	!LO:TX:t=P:problem=kreska pseudotaktowa
.	.	.	.	.	16ee-X\
=73-	=73-	=73-	=73-	=73-	=73-
4.BB-/	.	4.BB-/	.	2b-/	8dd\
.	.	.	.	.	16cc\
.	.	.	.	.	16b-/
.	.	.	.	.	8.ff\
8AA/	.	8AA/	.	.	.
.	.	.	.	.	32aa\
.	.	.	.	.	32gg\
4GG/	.	4GG/	.	8r	4bb-\
.	.	.	.	8dd\	.
!	!	!	!	!	!LO:TX:t=P:problem=kreska pseudotaktowa
4FF#X/	.	4FF#X/	.	8.a/	4r
!	!	!	!	!LO:TX:t=P:problem=kreska pseudotaktowa	!
.	.	.	.	16cc\	.
=74-	=74-	=74-	=74-	=74-	=74-
4GG/	.	4GG/	.	8b-/	8r
.	.	.	.	8g/	8gg\
!LO:N:acc=#	!	!LO:N:acc=#	!	!	!
4BBn/	.	4BBn/	.	4r	8.dd\
.	.	.	.	.	16ff\
*	*	*	*	*custos:cc	*
!	!	!	!	!LO:LB:g=original	!
4C/	.	4C/	.	8r	8ee-X\
.	.	.	.	8cc\	8cc\
!LO:TX:t=P:problem=kreska pseudotaktowa	!	!LO:TX:t=P:problem=kreska pseudotaktowa	!	!	!LO:TX:t=P:problem=kreska pseudotaktowa
4Eny\	.	4Eny\	.	8.g/	4r
!	!	!	!	!LO:TX:t=P:problem=kreska pseudotaktowa	!
.	.	.	.	16b-/	.
=75-	=75-	=75-	=75-	=75-	=75-
4F\	.	4F\	.	8a/	8r
.	.	.	.	8f/	8ff\
4AA/	6	4AA/	6	4r	8.cc\
.	.	.	.	.	16ee-X\
4BB-y/	.	4BB-y/	.	8r	8dd\
.	.	.	.	8b-/	8dd\
4D/	#	4D/	#	8.f#X/	8.a/
!	!	!	!	!	!LO:TX:t=P:problem=kreska pseudotaktowa
.	.	.	.	16a/	16cc\
=76-	=76-	=76-	=76-	=76-	=76-
2G\	.	2G\	.	8g/	8b-/
.	.	.	.	16g/	16b-/
.	.	.	.	16a/	16cc\
.	.	.	.	8.b-/	8.dd\
.	.	.	.	32cc\	32eeny\
.	.	.	.	32dd\	32ff\
*	*	*	*	*	*custos:gg
!	!	!	!	!	!LO:LB:g=original
!LO:TX:t=P:problem=kreska pseudotaktowa	!	!LO:TX:t=P:problem=kreska pseudotaktowa	!	!	!
2C/	- 5	2C/	- 5	8ee-X\	8gg\
.	.	.	.	16ee-\	16gg\
.	.	.	.	16dd\	16ff\
.	.	.	.	16cc\	16ee-X\
.	.	.	.	16b-/	16dd\
.	x 6	.	x 6	16a/	16cc\
!	!	!	!	!	!LO:TX:t=P:problem=kreska pseudotaktowa
.	.	.	.	16g/	16b-/
=77-	=77-	=77-	=77-	=77-	=77-
1D	5 #	1D	5 #	8f#X/	8a/
.	.	.	.	8a/	8d/
.	6 4	.	6 4	4.g/	8b-/
.	.	.	.	.	8dd\
.	.	.	.	.	4.a/
.	.	.	.	8g/	.
!	!	!	!	!LO:TX:t=P:problem=kreska pseudotaktowa	!
.	5 #	.	5 #	4f#X/	.
.	.	.	.	.	8a/
*	*	*	*	*custos:g	*
!	!	!	!	!LO:LB:g=original	!
=78-	=78-	=78-	=78-	=78-	=78-
!	!	!	!	!LO:TX:b:t=adagio.	!
1GG	.	1GG	.	2g/	2g/
.	.	.	.	8r	8r
!	!	!	!	!	!LO:TX:b:t=adagio.
.	.	.	.	8b-/	8dd\
.	.	.	.	8.g/	8.b-/
!	!	!	!	!	!LO:TX:t=P:problem=kreska pseudotaktowa
.	.	.	.	16f#X/	16a/
*custos:D	*	*custos:D	*	*	*
!LO:LB:g=original	!	!LO:LB:g=original	!	!	!
=79-	=79-	=79-	=79-	=79-	=79-
!LO:TX:b:t=adagio.	!	!LO:TX:b:t=adagio.	!	!	!
1D	5 #	1D	5 #	4f#X/	8a/
.	.	.	.	.	(16d/
.	.	.	.	.	16c#X/)
.	.	.	.	8r	(16e/
.	.	.	.	.	16d/)
.	.	.	.	(>16d/	(16f#X/
!	!	!	!	!LO:SIC:v:s=16c#)	!
.	.	.	.	16c/)	16e/)
.	.	.	.	(>16eny/	(16g/
.	.	.	.	16d/)	16f#X/)
.	.	.	.	(>16f#X/	(16a/
.	.	.	.	16e/)	16g/)
.	6 4	.	6 4	8g/	8b-/
.	.	.	.	16a/	16cc\
!	!	!	!	!LO:TX:t=P:problem=kreska pseudotaktowa	!
.	.	.	.	16b-/	16dd\
*	*	*	*	*	*custos:ee
!	!	!	!	!	!LO:LB:g=original
=80-	=80-	=80-	=80-	=80-	=80-
1C	- 5	1C	- 5	8.cc\	8.ee-X\
.	.	.	.	16b-/	16dd\
.	.	.	.	8.b-/	8.dd\
.	.	.	.	16a/	16cc\
.	x 6	.	x 6	8.a/	8.cc\
.	.	.	.	16g/	16b-/
.	x 5	.	x 5	8.g/	8.b-/
.	.	.	.	16f#X/	16a/
=81-	=81-	=81-	=81-	=81-	=81-
1D	#	1D	#	8.f#/	4a/
.	.	.	.	32e/	.
.	.	.	.	32d/	.
.	5 4	.	5 4	2g/	8.b-/
.	.	.	.	.	32a/
.	.	.	.	.	32g/
.	.	.	.	.	4.dd\
.	6 #	.	6 #	4f#X/	.
.	5 x	.	5 x	.	8a/
=82-	=82-	=82-	=82-	=82-	=82-
1GGl;	.	1GGl;	.	1gl;	1gl;
==	==	==	==	==	==
*-	*-	*-	*-	*-	*-
!!!system-decoration: [(str)]<klav>
!!!RDF**kern: > = above
!!!RDF**kern: < = below
!!!RDF**kern: l = terminal long
!!!ENC: Anastazja Marusiak
!!!END: 2022-10-08
!!!ENC: Andrzej Kubiczek
!!!END: 2022-11-26
!!!YEC: Copyright 2022 Narodowy Instytut Fryderyka Chopina (https://polishscores.org)
!!!YEM: License CC-BY-4.0 (https://creativecommons.org/licenses/by/4.0)
